X: 305534
T: DICKEY GOSSIP
C:
%R: jig
B: Elias Howe "The Musician's Companion" Part 3 1844 p.53 #4
S: http://imslp.org/wiki/The_Musician's_Companion_(Howe,_Elias)
S: https://archive.org/stream/firstthirdpartof03howe/#page/66/mode/1up
Z: 2015 John Chambers <jc:trillian.mit.edu>
M: 6/8
L: 1/8
K: G
% - - - - - - - - - - - - - - - - - - - - - - - - -
A |\
dBg ecg | dBg ecg | ded dcB | AAA A3 |\
dBg gBe | ^cAe eda | adg fge | d2d' d2 :|
|: z |\
dbd cac | BgB ABc | dbd cac | BgB A3 |\
GDG ADA | BDB cDc | dgB cAF | G2g G2 :|
% - - - - - - - - - - - - - - - - - - - - - - - - -
